X:1
T:Title
%%score ( 1 2 ) { 3 | 4 }
L:1/8
Q:1/4=83
M:2/4
K:A
V:1 treble nm="Grand Piano, Soprano"
V:2 treble 
V:3 bass nm="Choir Pad, Tunis, E. Roberts, 1893"
V:4 bass 
V:1
 [CA][Ec] [EA][EA] | [EA][DB] [DF][DF] | [DF]E [EA][EA] | [Ec] [EB]3 | [EB][Ec] [EA][EA] | %5
w: By~E.~Roberts,~1893 * * *|||||
 [EA][DB] [DF][DF] | [DF][CE] [CA][DB] | [Ec] [CA]3- | [CA] [DA]2 [DF]- | [DF]/[DA]/ [CA]3 | %10
w: |||||
 z [Ec]2 [Ed]- | [Ed]/[Ec]/ [EB]3 | z [EA]2 [EB]- | [EB]/[EB]/c e2 | [Fd] [Ec]2 [DB]- | %15
w: |||||
 [DB] [CA]3- | [CA]4 |] %17
w: ||
V:2
 x4 | x4 | x4 | x4 | x4 | x4 | x4 | x4 | x4 | x4 | x4 | x4 | x4 | z E3 | x4 | x4 | x4 |] %17
V:3
 A,A, A,A, | A,F, A,A, | A,A, A,C | A, G,3 | G,A, A,A, | A,F, A,A, | A,A, A,G, | G, A,3- | %8
 A, F,2 A,- | A,/F,/ E,3 | z A,2 B,- | B,/A,/ G,3 | z A,2 G,- | G,/G,/ A,3 | A, A,2 G, | E, E,3- | %16
 E,4 |] %17
V:4
 A,,A,, C,C, | C,D, D,D, | D,D, D,A,, | D, E,3 | E,A,, C,C, | C,D, D,D, | D,E, E,E, | E, A,,3- | %8
 A,, D,2 D,- | D,/D,/ A,,3 | z2 z G,- | G, E,3 | z C,2 B,,- | B,,/B,,/A,, C,2 | D, E,2 E, | %15
 z A,,3- | A,,4 |] %17

